X:27
T:Take Me
T:Australia
C:Jack Lumsdaine 
S:nla.obj-167754004
O:Australia
R:Ballad
Q:"allegro" 1/4=140
M:4/4
L:1/8
K:Gmajor
[I: MIDI=program 72]d2e2d2B2 | A2G2A2B2 | G8 | d8 | d2e2d2B2 | A2G2A2B2 | 
w:Just a long long years since last we met dear. All my re-sol-u-tions were in vain.
(d8 | d6)z2 | c2d2e2c2 | B2A2B2c2 | A8 | 
w:vain.* You have bro-ken down my fool-ish pride dear
B8 | ^c2c2B2A2 | e2B4^c2 | (d8 | d6)||
w:dear So I'm going to ask you ag-ain
D2E2G2E2 | G4E4 | F4(d4 | d8) | D2E2F2c2 | 
w:Take me with you when it's twi-light.* Take me where the 
A4^A4 | (B8 | B6)z2 | E2F2^G2d2 | c4B4 | 
w:sha-dows fall.* Take me down that win-ding
d8 | c8 | A2B2A2G2 | F4E4 | (A8 | A6)z2|
w:path-way. Take me where the | night birds call.
D2E2G2E2 | G4E4 | F4(d4 | d8 )|
w:Though we've drift-ed far a-part dear
.e2.d2.e2.d2 | e2d2B2G2 | (c8 | B8) | 
w:Sun-shine al-ways foll-ows af-ter rain. So
A2G2F2G2 | A2G2F2G2 | e8 | .dz5E2 | c2E2^D2E2 | 
w:sing to me love's old sweet song at twi-light, And take me in your
B4B4 | (G8 |G4)z4:| 
w:arms a-gain

